; generated by PrusaSlicer 2.7.2+win64 on 2024-04-02 at 02:13:41 UTC


;
;
; 

; external perimeters extrusion width = 0.45mm
; perimeters extrusion width = 0.45mm
; infill extrusion width = 0.45mm
; solid infill extrusion width = 0.45mm
; top infill extrusion width = 0.40mm
; first layer extrusion width = 0.42mm

; external perimeters extrusion width = 0.45mm
; perimeters extrusion width = 0.45mm
; infill extrusion width = 0.45mm
; solid infill extrusion width = 0.45mm
; top infill extrusion width = 0.40mm
; first layer extrusion width = 0.42mm

M73 P0 R53
M73 C48
M73 Q0 S53
M73 D48
M201 X1000 Y1000 Z200 E5000 ; sets maximum accelerations, mm/sec^2
M203 X200 Y200 Z12 E120 ; sets maximum feedrates, mm / sec
M204 S1250 T1250 ; sets acceleration (S) and retract acceleration (R), mm/sec^2
M205 X8.00 Y8.00 Z0.40 E4.50 ; sets the jerk limits, mm/sec
M205 S0 T0 ; sets the minimum extruding and travel feed rate, mm/sec

; printing object hex_nut_enclosure_with_slot.STL id:1 copy 0
; stop printing object hex_nut_enclosure_with_slot.STL id:1 copy 0
; printing object shifted_molex_slot.STL id:0 copy 0
; stop printing object shifted_molex_slot.STL id:0 copy 0

;TYPE:Custom
M862.3 P "MK3S" ; printer model check
M862.1 P0.4 ; nozzle diameter check
M115 U3.13.3 ; tell printer latest fw version
G90 ; use absolute coordinates
M83 ; extruder relative mode
M104 S230 ; set extruder temp
M140 S85 ; set bed temp
M190 S85 ; wait for bed temp
M109 S230 ; wait for extruder temp
G28 W ; home all without mesh bed level
G80 X104.992 Y74.8602 W40.0154 H60.2797 ; mesh bed levelling

G1 Z0.2 F720
G1 Y-3 F1000 ; go outside print area
G92 E0
G1 X60 E9 F1000 ; intro line
G1 X100 E12.5 F1000 ; intro line

G92 E0
M221 S95

; Don't change E values below. Excessive value can damage the printer.
M907 E430 ; set extruder motor current
G21 ; set units to millimeters
G90 ; use absolute coordinates
M83 ; use relative distances for extrusion

M900 K0.08 ; Filament gcode LA 1.5
M900 K45 ; Filament gcode LA 1.0




M107
;LAYER_CHANGE
;Z:0.2
;HEIGHT:0.2
G1 E-1 F2100
G1 Z.4 F720
G1 X108.626 Y80.956 F10800
G1 Z.2 F720
G1 E1 F2100
M204 S800
;TYPE:Skirt/Brim
;WIDTH:0.42
G1 F1200
G1 X109.739 Y79.464 E.05836
G1 X111.143 Y77.942 E.06492
G1 X112.512 Y76.724 E.05745
G1 X114.196 Y75.5 E.06527
G1 X115.581 Y75.055 E.04561
G1 X134.41 Y75.049 E.59037
G1 X135.795 Y75.493 E.0456
G1 X137.479 Y76.716 E.06526
G1 X138.849 Y77.934 E.05748
G1 X140.261 Y79.464 E.06528
G1 X141.643 Y81.341 E.07308
G1 X142.677 Y83.135 E.06492
G1 X143.436 Y84.814 E.05777
G1 X144.102 Y86.788 E.06532
G1 X144.558 Y88.819 E.06527
G1 X144.812 Y91.136 E.07308
G1 X144.807 Y93.207 E.06493
G1 X144.585 Y95.288 E.06562
G1 X136.185 Y133.091 E1.2142
G1 X135.519 Y134.282 E.04278
M73 P0 R52
G1 X133.865 Y134.951 E.05594
G1 X116.135 Y134.951 E.55591
G1 X114.828 Y134.56 E.04277
G1 X113.815 Y133.091 E.05595
G1 X105.415 Y95.288 E1.2142
G1 X105.193 Y93.218 E.06528
G1 X105.188 Y91.136 E.06528
G1 X105.402 Y89.066 E.06525
G1 X105.895 Y86.799 E.07274
G1 X106.473 Y85.048 E.05782
G1 X107.314 Y83.154 E.06498
G1 X108.495 Y81.133 E.07339
G1 X108.59 Y81.004 E.00502
M204 S1000
; printing object shifted_molex_slot.STL id:0 copy 0
;WIPE_START
G1 F8640
G1 X108.626 Y80.956 E-.01385
G1 X109.739 Y79.464 E-.4298
G1 X111.143 Y77.942 E-.47812
G1 X111.396 Y77.717 E-.07823
;WIPE_END
G1 Z.4 F720
G1 X123.31 Y116.348 F10800
G1 Z.2 F720
G1 E1 F2100
M204 S800
;TYPE:Perimeter
;WIDTH:0.419999
G1 F1200
G1 X123.789 Y116.347 E.01502
;WIDTH:0.392263
G1 X126.211 Y116.347 E.07035
;WIDTH:0.419999
G1 X133.078 Y116.361 E.21531
G1 X133.078 Y117.665 E.04089
G1 X133.086 Y120.374 E.08494
;WIDTH:0.404381
G1 X133.086 Y124.876 E.13531
;WIDTH:0.409976
G1 X133.083 Y125.005 E.00394
;WIDTH:0.419999
G1 X133.078 Y131.787 E.21264
G1 X116.922 Y131.787 E.50656
G1 X116.914 Y124.876 E.21669
;WIDTH:0.404381
G1 X116.914 Y120.374 E.13531
;WIDTH:0.419999
G1 X116.922 Y116.361 E.12582
G1 X123.25 Y116.349 E.19841
M204 S1000
;WIPE_START
G1 F8640
G1 X123.31 Y116.348 E-.01386
G1 X123.789 Y116.347 E-.1106
G1 X126.211 Y116.347 E-.55925
G1 X127.581 Y116.35 E-.31629
;WIPE_END
G1 Z.4 F720
G1 X133.455 Y115.984 F10800
G1 Z.2 F720
G1 E1 F2100
M204 S800
;TYPE:External perimeter
G1 F1200
G1 X133.455 Y117.665 E.05271
G1 X133.455 Y132.164 E.45461
G1 X116.545 Y132.164 E.5302
G1 X116.545 Y115.984 E.50731
G1 X133.395 Y115.984 E.52832
M204 S1000
;WIPE_START
G1 F8640
G1 X133.455 Y115.984 E-.01385
G1 X133.455 Y117.665 E-.38815
G1 X133.455 Y120.255 E-.598
;WIPE_END
G1 Z.4 F720
G1 X123.255 Y117.152 F10800
G1 Z.2 F720
G1 E1 F2100
M204 S800
;TYPE:Perimeter
G1 F1200
G1 X123.336 Y116.909 E.00803
G1 X123.693 Y116.702 E.01294
;WIDTH:0.397767
G1 X123.789 Y116.697 E.00284
;WIDTH:0.392263
G1 X126.211 Y116.697 E.07035
;WIDTH:0.419999
G1 X126.664 Y116.909 E.01568
G1 X126.777 Y117.322 E.01343
G1 X126.777 Y118.283 E.03013
G1 X130.326 Y118.283 E.11128
G1 X130.58 Y118.343 E.00818
G1 X130.764 Y118.491 E.0074
G1 X130.892 Y118.849 E.01192
G1 X130.892 Y119.808 E.03007
G1 X132.166 Y119.808 E.03995
G1 X132.506 Y119.921 E.01123
G1 X132.724 Y120.374 E.01576
;WIDTH:0.404381
G1 X132.724 Y124.876 E.13531
;WIDTH:0.409976
G1 X132.719 Y124.973 E.00296
;WIDTH:0.419999
G1 X132.506 Y125.329 E.01301
G1 X132.166 Y125.442 E.01123
G1 X130.892 Y125.442 E.03995
G1 X130.892 Y126.401 E.03007
G1 X130.823 Y126.672 E.00877
G1 X130.689 Y126.836 E.00664
G1 X130.389 Y126.964 E.01023
G1 X119.674 Y126.967 E.33596
G1 X119.466 Y126.928 E.00664
M73 Q0 S52
G1 X119.311 Y126.836 E.00565
G1 X119.177 Y126.672 E.00664
G1 X119.108 Y126.401 E.00877
G1 X119.108 Y125.442 E.03007
G1 X117.834 Y125.442 E.03995
G1 X117.494 Y125.329 E.01123
G1 X117.281 Y124.973 E.01301
;WIDTH:0.409977
G1 X117.276 Y124.876 E.00296
;WIDTH:0.404381
G1 X117.276 Y120.374 E.13531
;WIDTH:0.419999
G1 X117.494 Y119.921 E.01576
G1 X117.834 Y119.808 E.01123
G1 X119.108 Y119.808 E.03995
G1 X119.108 Y118.849 E.03007
G1 X119.236 Y118.491 E.01192
G1 X119.42 Y118.343 E.0074
G1 X119.674 Y118.283 E.00818
G1 X123.223 Y118.283 E.11128
G1 X123.223 Y117.249 E.03242
G1 X123.236 Y117.209 E.00132
M204 S1000
G1 X123.236 Y117.209 F10800
G1 X123.6 Y117.249
M204 S800
;TYPE:External perimeter
G1 F1200
G1 X123.638 Y117.135 E.00377
G1 X123.789 Y117.06 E.00529
G1 X126.211 Y117.06 E.07594
G1 X126.362 Y117.135 E.00529
G1 X126.4 Y117.322 E.00598
G1 X126.4 Y118.66 E.04195
G1 X130.326 Y118.66 E.1231
G1 X130.472 Y118.729 E.00506
G1 X130.515 Y118.849 E.004
G1 X130.515 Y120.185 E.04189
G1 X132.166 Y120.185 E.05177
G1 X132.28 Y120.223 E.00377
G1 X132.355 Y120.374 E.00529
G1 X132.355 Y124.876 E.14116
G1 X132.28 Y125.027 E.00529
G1 X131.982 Y125.065 E.00942
G1 X130.515 Y125.065 E.046
G1 X130.515 Y126.401 E.04189
G1 X130.447 Y126.546 E.00502
G1 X130.326 Y126.59 E.00404
G1 X119.674 Y126.59 E.33399
G1 X119.553 Y126.546 E.00404
G1 X119.485 Y126.401 E.00502
G1 X119.485 Y125.065 E.04189
G1 X117.834 Y125.065 E.05177
G1 X117.72 Y125.027 E.00377
G1 X117.645 Y124.876 E.00529
G1 X117.645 Y120.374 E.14116
G1 X117.72 Y120.223 E.00529
G1 X118.018 Y120.185 E.00942
G1 X119.485 Y120.185 E.046
G1 X119.485 Y118.849 E.04189
G1 X119.528 Y118.729 E.004
G1 X119.674 Y118.66 E.00506
G1 X123.6 Y118.66 E.1231
G1 X123.6 Y117.309 E.04236
M204 S1000
;WIPE_START
G1 F8640
G1 X123.6 Y117.249 E-.01385
G1 X123.638 Y117.135 E-.02775
G1 X123.789 Y117.06 E-.03893
G1 X126.211 Y117.06 E-.55925
G1 X126.362 Y117.135 E-.03893
G1 X126.4 Y117.322 E-.04406
G1 X126.4 Y118.523 E-.27723
;WIPE_END
G1 Z.4 F720
G1 X122.532 Y116.531 F10800
G1 Z.2 F720
G1 E1 F2100
M204 S800
;TYPE:Solid infill
;WIDTH:0.424377
G1 F1200
G1 X122.969 Y116.968 E.0196
G1 X122.884 Y117.224 E.00856
G1 X122.884 Y117.422 E.00628
G1 X122.162 Y116.701 E.03236
G1 X121.623 Y116.701 E.0171
G1 X122.865 Y117.944 E.05573
G1 X122.326 Y117.944 E.0171
G1 X121.083 Y116.701 E.05576
G1 X120.544 Y116.701 E.0171
G1 X121.787 Y117.944 E.05576
G1 X121.247 Y117.944 E.01713
G1 X120.004 Y116.701 E.05576
G1 X119.465 Y116.701 E.0171
G1 X120.708 Y117.944 E.05576
G1 X120.168 Y117.944 E.01713
G1 X118.925 Y116.701 E.05576
G1 X118.386 Y116.701 E.0171
G1 X119.632 Y117.947 E.05589
G1 X119.513 Y117.957 E.00379
G1 X119.262 Y118.04 E.00839
G1 X119.22 Y118.074 E.00171
G1 X117.846 Y116.701 E.06161
G1 X117.307 Y116.701 E.0171
G1 X118.942 Y118.335 E.07332
G1 X118.786 Y118.72 E.01318
G1 X117.261 Y117.195 E.06841
G1 X117.261 Y117.734 E.0171
G1 X118.77 Y119.242 E.06767
G1 X118.769 Y119.469 E.0072
G1 X118.456 Y119.469 E.00993
G1 X117.261 Y118.274 E.0536
G1 X117.261 Y118.813 E.0171
G1 X117.917 Y119.469 E.02943
G1 X117.809 Y119.469 E.00343
G1 X117.485 Y119.576 E.01082
G1 X117.092 Y119.183 E.01763
M204 S1000
;WIPE_START
G1 F8640
G1 X117.485 Y119.576 E-.12833
G1 X117.809 Y119.469 E-.07879
G1 X117.917 Y119.469 E-.02494
G1 X117.261 Y118.813 E-.21421
G1 X117.261 Y118.274 E-.12446
G1 X118.456 Y119.469 E-.39022
G1 X118.625 Y119.469 E-.03905
;WIPE_END
G1 Z.4 F720
G1 X132.13 Y116.531 F10800
G1 Z.2 F720
G1 E1 F2100
M204 S800
;WIDTH:0.427745
G1 F1200
G1 X132.739 Y117.14 E.02756
G1 X132.739 Y117.684 E.01741
G1 X131.755 Y116.701 E.04451
G1 X131.211 Y116.701 E.01741
M73 Q1 S52
G1 X132.739 Y118.228 E.06912
G1 X132.739 Y118.773 E.01744
G1 X130.667 Y116.701 E.09376
G1 X130.122 Y116.701 E.01744
M73 P1 R52
G1 X132.739 Y119.317 E.1184
G1 X132.739 Y119.672 E.01136
G1 X132.728 Y119.647 E.00087
G1 X132.424 Y119.546 E.01025
G1 X129.578 Y116.701 E.12877
G1 X129.034 Y116.701 E.01741
G1 X130.277 Y117.944 E.05625
G1 X130.344 Y117.944 E.00214
G1 X130.733 Y118.036 E.01279
G1 X131.035 Y118.278 E.01238
G1 X131.229 Y118.757 E.01654
G1 X131.229 Y118.896 E.00445
G1 X131.802 Y119.469 E.02593
G1 X131.258 Y119.469 E.01741
G1 X131.061 Y119.272 E.00891
M204 S1000
;WIPE_START
G1 F8640
G1 X131.258 Y119.469 E-.06433
G1 X131.802 Y119.469 E-.12561
G1 X131.229 Y118.896 E-.18711
G1 X131.229 Y118.757 E-.0321
G1 X131.035 Y118.278 E-.11933
G1 X130.733 Y118.036 E-.08936
G1 X130.344 Y117.944 E-.0923
G1 X130.277 Y117.944 E-.01547
G1 X129.437 Y117.103 E-.27439
;WIPE_END
G1 Z.4 F720
G1 X129.902 Y118.113 F10800
G1 Z.2 F720
G1 E1 F2100
M204 S800
G1 F1200
G1 X128.49 Y116.701 E.0639
G1 X127.945 Y116.701 E.01744
G1 X129.188 Y117.944 E.05625
G1 X128.644 Y117.944 E.01741
G1 X127.401 Y116.701 E.05625
G1 X126.942 Y116.701 E.01469
G1 X126.984 Y116.828 E.00428
G1 X128.1 Y117.944 E.0505
G1 X127.556 Y117.944 E.01741
G1 X126.947 Y117.335 E.02756
M204 S1000
;WIPE_START
G1 F8640
G1 X127.556 Y117.944 E-.19887
G1 X128.1 Y117.944 E-.12561
G1 X126.984 Y116.828 E-.36443
G1 X126.942 Y116.701 E-.03089
G1 X127.401 Y116.701 E-.10598
G1 X127.935 Y117.234 E-.17422
;WIPE_END
G1 Z.4 F720
G1 X132.908 Y126.105 F10800
G1 Z.2 F720
G1 E1 F2100
M204 S800
;WIDTH:0.425416
G1 F1200
G1 X132.486 Y125.683 E.01898
G1 X132.191 Y125.781 E.00989
G1 X132.044 Y125.781 E.00468
G1 X132.739 Y126.476 E.03126
G1 X132.739 Y127.017 E.01721
G1 X131.503 Y125.781 E.05559
G1 X131.231 Y125.781 E.00865
G1 X131.23 Y126.05 E.00856
G1 X132.739 Y127.558 E.06785
G1 X132.739 Y128.099 E.01721
G1 X131.205 Y126.565 E.069
G1 X131.125 Y126.834 E.00893
G1 X131.038 Y126.94 E.00436
G1 X132.739 Y128.64 E.07649
G1 X132.739 Y129.181 E.01721
G1 X130.749 Y127.192 E.08948
G1 X130.661 Y127.244 E.00325
G1 X130.429 Y127.302 E.00761
G1 X130.319 Y127.302 E.0035
G1 X132.739 Y129.722 E.10885
G1 X132.739 Y130.263 E.01721
G1 X129.778 Y127.302 E.13318
G1 X129.237 Y127.302 E.01721
G1 X132.739 Y130.804 E.15752
G1 X132.739 Y131.345 E.01721
G1 X128.697 Y127.302 E.18183
G1 X128.156 Y127.303 E.01721
G1 X132.301 Y131.448 E.18644
G1 X131.76 Y131.448 E.01721
G1 X127.615 Y127.303 E.18644
G1 X127.074 Y127.303 E.01721
G1 X131.219 Y131.448 E.18644
G1 X130.678 Y131.448 E.01721
G1 X126.534 Y127.303 E.18641
M73 C47
G1 X125.993 Y127.304 E.01721
G1 X130.137 Y131.448 E.18639
G1 X129.596 Y131.448 E.01721
G1 X125.452 Y127.304 E.18639
G1 X124.912 Y127.304 E.01717
G1 X129.055 Y131.448 E.18637
G1 X128.514 Y131.448 E.01721
G1 X124.371 Y127.304 E.18637
G1 X123.83 Y127.305 E.01721
G1 X127.973 Y131.448 E.18635
G1 X127.433 Y131.448 E.01717
G1 X123.29 Y127.305 E.18635
G1 X122.749 Y127.305 E.01721
G1 X126.892 Y131.448 E.18635
G1 X126.351 Y131.448 E.01721
G1 X122.208 Y127.305 E.18635
G1 X121.668 Y127.306 E.01717
G1 X125.81 Y131.448 E.1863
G1 X125.269 Y131.448 E.01721
G1 X121.127 Y127.306 E.1863
G1 X120.586 Y127.306 E.01721
G1 X124.728 Y131.448 E.1863
G1 X124.187 Y131.448 E.01721
G1 X119.876 Y127.137 E.1939
M204 S1000
;WIPE_START
G1 F8640
G1 X122.938 Y130.199 E-1
;WIPE_END
G1 Z.4 F720
G1 X118.94 Y126.201 F10800
G1 Z.2 F720
G1 E1 F2100
M204 S800
G1 F1200
G1 X118.521 Y125.781 E.01887
G1 X117.98 Y125.781 E.01721
G1 X123.646 Y131.448 E.25487
G1 X123.105 Y131.448 E.01721
G1 X117.252 Y125.595 E.26326
G1 X117.253 Y126.137 E.01724
G1 X122.564 Y131.448 E.23888
G1 X122.023 Y131.448 E.01721
G1 X117.254 Y126.679 E.2145
G1 X117.255 Y127.22 E.01721
G1 X121.482 Y131.448 E.19015
G1 X120.941 Y131.448 E.01721
G1 X117.256 Y127.762 E.16577
G1 X117.256 Y128.304 E.01724
G1 X120.4 Y131.448 E.14141
G1 X119.859 Y131.448 E.01721
G1 X117.257 Y128.846 E.11703
G1 X117.258 Y129.387 E.01721
G1 X119.319 Y131.448 E.0927
G1 X118.778 Y131.448 E.01721
G1 X117.259 Y129.929 E.06832
G1 X117.26 Y130.471 E.01724
G1 X118.237 Y131.448 E.04394
G1 X117.696 Y131.448 E.01721
G1 X117.091 Y130.843 E.02721
M204 S1000
; stop printing object shifted_molex_slot.STL id:0 copy 0
; printing object hex_nut_enclosure_with_slot.STL id:1 copy 0
;WIPE_START
G1 F8640
G1 X117.696 Y131.448 E-.19756
G1 X118.237 Y131.448 E-.12492
G1 X117.26 Y130.471 E-.31904
G1 X117.259 Y129.929 E-.12515
G1 X117.973 Y130.643 E-.23333
;WIPE_END
G1 Z.4 F720
G1 X115.842 Y78.213 F10800
G1 Z.2 F720
G1 E1 F2100
M204 S800
;TYPE:Perimeter
;WIDTH:0.419999
G1 F1200
G1 X134.158 Y78.213 E.57428
G1 X135.408 Y79.109 E.04822
G1 X136.716 Y80.271 E.05486
G1 X137.895 Y81.565 E.05489
G1 X138.932 Y82.974 E.05485
G1 X139.816 Y84.485 E.05489
G1 X140.536 Y86.08 E.05487
G1 X141.085 Y87.742 E.05488
G1 X141.457 Y89.451 E.05484
G1 X141.648 Y91.191 E.05488
G1 X141.651 Y91.914 E.02267
G1 X141.655 Y92.941 E.0322
G1 X141.479 Y94.682 E.05487
G1 X141.121 Y96.395 E.05487
G1 X140.586 Y98.061 E.05486
G1 X139.879 Y99.662 E.05487
G1 X139.008 Y101.18 E.05487
G1 X137.983 Y102.598 E.05486
G1 X136.815 Y103.902 E.05489
G1 X135.517 Y105.075 E.05485
G1 X134.103 Y106.106 E.05487
G1 X132.589 Y106.983 E.05486
G1 X130.991 Y107.697 E.05488
G1 X129.327 Y108.239 E.05487
G1 X127.615 Y108.604 E.05488
G1 X125.875 Y108.787 E.05486
G1 X124.125 Y108.787 E.05487
G1 X122.385 Y108.604 E.05486
G1 X120.673 Y108.239 E.05488
G1 X119.009 Y107.697 E.05487
G1 X117.411 Y106.983 E.05488
G1 X115.897 Y106.106 E.05486
G1 X114.483 Y105.075 E.05487
G1 X113.185 Y103.902 E.05485
G1 X112.017 Y102.598 E.05489
G1 X110.992 Y101.18 E.05486
G1 X110.121 Y99.662 E.05487
G1 X109.414 Y98.061 E.05487
M73 D47
G1 X108.879 Y96.395 E.05486
G1 X108.521 Y94.682 E.05487
G1 X108.345 Y92.941 E.05487
G1 X108.352 Y91.191 E.05487
G1 X108.543 Y89.451 E.05488
G1 X108.915 Y87.742 E.05484
G1 X109.464 Y86.08 E.05488
G1 X110.184 Y84.485 E.05487
G1 X111.068 Y82.974 E.05489
G1 X112.105 Y81.565 E.05485
G1 X113.284 Y80.271 E.05489
G1 X114.592 Y79.109 E.05486
G1 X115.794 Y78.248 E.04636
M204 S1000
G1 X115.794 Y78.248 F10800
G1 X115.721 Y77.836
M204 S800
;TYPE:External perimeter
G1 F1200
G1 X134.279 Y77.836 E.58187
G1 X135.644 Y78.814 E.05265
G1 X136.982 Y80.003 E.05612
G1 X138.187 Y81.325 E.05609
G1 X139.248 Y82.767 E.05613
G1 X140.151 Y84.312 E.05611
G1 X140.888 Y85.943 E.05612
G1 X141.449 Y87.642 E.0561
G1 X141.83 Y89.391 E.05612
G1 X142.025 Y91.17 E.05611
G1 X142.028 Y91.912 E.02327
G1 X142.032 Y92.959 E.03283
G1 X141.852 Y94.74 E.05613
G1 X141.486 Y96.492 E.05612
G1 X140.939 Y98.195 E.05608
G1 X140.216 Y99.833 E.05614
G1 X139.326 Y101.385 E.0561
G1 X138.277 Y102.835 E.05611
G1 X137.083 Y104.168 E.05611
G1 X135.755 Y105.368 E.05612
G1 X134.309 Y106.422 E.0561
G1 X132.76 Y107.319 E.05612
G1 X131.126 Y108.049 E.05611
G1 X129.425 Y108.604 E.0561
G1 X127.675 Y108.977 E.0561
G1 X125.895 Y109.164 E.05612
G1 X124.105 Y109.164 E.05612
G1 X122.325 Y108.977 E.05612
G1 X120.575 Y108.604 E.0561
G1 X118.874 Y108.049 E.0561
G1 X117.24 Y107.319 E.05611
G1 X115.691 Y106.422 E.05612
G1 X114.245 Y105.368 E.0561
